X: 6
T: Zhen hunhun genshang ni zoule
%%abc-version 2.0
%%abcx-abcm2ps-target-version 5.9.1 (29 Sep 2008)
%%abc-creator hum2abc beta
%%abcx-conversion-date 2013/10/02 07:52:29
%%abc-edited-by Helmut Schaffrath
%%humdrum-veritas 3684463138
%%humdrum-veritas-data 3622151477
%%continueall 1
%%barnumbers 0
L: 1/8
M: 2/4
K: Bb
d'd'2b [I:setbarnb 1]| 
b b a g | 
f g d' f | 
d4 | 
c'c'2b | 
b> b a g | 
f g d' f | 
g4 |]  



